icons/modern/clipboard.svg

<svg width="32" height="32" viewBox="0 0 32 32" fill="none" xmlns="http://www.w3.org/2000/svg">
<g filter="url(#filter0_iiii_18_23055)">
<path d="M5.07227 4.63516C5.07227 3.7515 5.78861 3.03516 6.67227 3.03516H25.3277C26.2114 3.03516 26.9277 3.7515 26.9277 4.63516V28.3687C26.9277 29.2524 26.2114 29.9688 25.3277 29.9688H6.67227C5.78861 29.9688 5.07227 29.2524 5.07227 28.3687V4.63516Z" fill="url(#paint0_linear_18_23055)"/>
<path d="M5.07227 4.63516C5.07227 3.7515 5.78861 3.03516 6.67227 3.03516H25.3277C26.2114 3.03516 26.9277 3.7515 26.9277 4.63516V28.3687C26.9277 29.2524 26.2114 29.9688 25.3277 29.9688H6.67227C5.78861 29.9688 5.07227 29.2524 5.07227 28.3687V4.63516Z" fill="url(#paint1_radial_18_23055)"/>
</g>
<g filter="url(#filter1_f_18_23055)">
<path d="M7.95117 5.53125C7.2608 5.53125 6.70117 6.09088 6.70117 6.78125V26.9727C6.70117 27.663 7.2608 28.2227 7.95117 28.2227H18.6423C18.8413 28.2227 19.032 28.1436 19.1727 28.003L24.3253 22.8504C24.4659 22.7098 24.5449 22.519 24.5449 22.3201V6.78125C24.5449 6.09088 23.9853 5.53125 23.2949 5.53125H7.95117Z" fill="#CD7D52"/>
</g>
<g filter="url(#filter2_ii_18_23055)">
<path d="M8.31836 5.15625C7.62799 5.15625 7.06836 5.71588 7.06836 6.40625V26.5977C7.06836 27.288 7.62799 27.8477 8.31836 27.8477H19.0095C19.2084 27.8477 19.3992 27.7686 19.5399 27.628L24.6924 22.4754C24.8331 22.3348 24.9121 22.144 24.9121 21.9451V6.40625C24.9121 5.71588 24.3525 5.15625 23.6621 5.15625H8.31836Z" fill="url(#paint2_linear_18_23055)"/>
</g>
<rect x="9.03711" y="12.0156" width="13.9141" height="0.976562" rx="0.488281" fill="#9B96A2"/>
<rect x="9.03711" y="15.0234" width="13.9141" height="0.976562" rx="0.488281" fill="#9B96A2"/>
<rect x="9.03711" y="18.0312" width="13.9141" height="0.976562" rx="0.488281" fill="#9B96A2"/>
<rect x="9.03711" y="21.0391" width="8.96875" height="0.976562" rx="0.488281" fill="#9B96A2"/>
<g filter="url(#filter3_f_18_23055)">
<path d="M24.6074 22.0303H24.6036C24.6036 22.2488 24.4814 22.3009 24.3623 22.3133H20.0561C19.5153 22.3133 19.077 22.7517 19.077 23.2924V27.5884C19.0477 27.7354 18.8582 27.8191 18.7595 27.8438L18.7559 27.8476H18.8281C19.0229 27.8476 19.2097 27.7702 19.3474 27.6325L24.3923 22.5875C24.53 22.4498 24.6074 22.263 24.6074 22.0683V22.0303Z" fill="#D0C1E0"/>
</g>
<g filter="url(#filter4_ii_18_23055)">
<path d="M24.9121 21.9062H24.9082C24.9082 22.1295 24.7834 22.1827 24.6617 22.1953H20.2637C19.7114 22.1953 19.2637 22.643 19.2637 23.1953V27.5829C19.2338 27.733 19.0402 27.8186 18.9395 27.8438L18.9357 27.8477H19.0095C19.2084 27.8477 19.3992 27.7686 19.5399 27.628L24.6924 22.4754C24.8331 22.3347 24.9121 22.144 24.9121 21.9451V21.9062Z" fill="url(#paint3_linear_18_23055)"/>
</g>
<g filter="url(#filter5_f_18_23055)">
<path d="M10.7793 5.65625C10.7793 5.38011 11.0032 5.15625 11.2793 5.15625H20.4668V7.8125C20.4668 8.08864 20.2429 8.3125 19.9668 8.3125H11.2793C11.0032 8.3125 10.7793 8.08864 10.7793 7.8125V5.65625Z" fill="#CABFD5"/>
</g>
<g filter="url(#filter6_ii_18_23055)">
<path fill-rule="evenodd" clip-rule="evenodd" d="M15.9902 1.98438C17.0694 1.98438 17.9474 2.84583 17.974 3.91861C17.9747 3.94621 17.997 3.96875 18.0246 3.96875H18.9668C20.0714 3.96875 20.9668 4.86417 20.9668 5.96875V7.53516C20.9668 7.81345 20.7412 8.03906 20.4629 8.03906H11.5332C11.2549 8.03906 11.0293 7.81345 11.0293 7.53516V5.96875C11.0293 4.86417 11.9247 3.96875 13.0293 3.96875H13.9559C13.9835 3.96875 14.0058 3.94621 14.0065 3.91861C14.0331 2.84583 14.9111 1.98438 15.9902 1.98438ZM15.9902 4.86719C16.4865 4.86719 16.8887 4.46494 16.8887 3.96875C16.8887 3.47256 16.4865 3.07031 15.9902 3.07031C15.494 3.07031 15.0918 3.47256 15.0918 3.96875C15.0918 4.46494 15.494 4.86719 15.9902 4.86719Z" fill="url(#paint4_linear_18_23055)"/>
</g>
<defs>
<filter id="filter0_iiii_18_23055" x="4.72227" y="2.78516" width="22.4555" height="27.4336" filterUnits="userSpaceOnUse" color-interpolation-filters="sRGB">
<feFlood flood-opacity="0" result="BackgroundImageFix"/>
<feBlend mode="normal" in="SourceGraphic" in2="BackgroundImageFix" result="shape"/>
<feColorMatrix in="SourceAlpha" type="matrix" values="0 0 0 0 0 0 0 0 0 0 0 0 0 0 0 0 0 0 127 0" result="hardAlpha"/>
<feOffset dx="0.25"/>
<feGaussianBlur stdDeviation="0.25"/>
<feComposite in2="hardAlpha" operator="arithmetic" k2="-1" k3="1"/>
<feColorMatrix type="matrix" values="0 0 0 0 0.670588 0 0 0 0 0.376471 0 0 0 0 0.278431 0 0 0 1 0"/>
<feBlend mode="normal" in2="shape" result="effect1_innerShadow_18_23055"/>
<feColorMatrix in="SourceAlpha" type="matrix" values="0 0 0 0 0 0 0 0 0 0 0 0 0 0 0 0 0 0 127 0" result="hardAlpha"/>
<feOffset dy="-0.25"/>
<feGaussianBlur stdDeviation="0.25"/>
<feComposite in2="hardAlpha" operator="arithmetic" k2="-1" k3="1"/>
<feColorMatrix type="matrix" values="0 0 0 0 0.643137 0 0 0 0 0.329412 0 0 0 0 0.364706 0 0 0 1 0"/>
<feBlend mode="normal" in2="effect1_innerShadow_18_23055" result="effect2_innerShadow_18_23055"/>
<feColorMatrix in="SourceAlpha" type="matrix" values="0 0 0 0 0 0 0 0 0 0 0 0 0 0 0 0 0 0 127 0" result="hardAlpha"/>
<feOffset dx="-0.35" dy="0.25"/>
<feGaussianBlur stdDeviation="0.225"/>
<feComposite in2="hardAlpha" operator="arithmetic" k2="-1" k3="1"/>
<feColorMatrix type="matrix" values="0 0 0 0 1 0 0 0 0 0.760784 0 0 0 0 0.529412 0 0 0 1 0"/>
<feBlend mode="normal" in2="effect2_innerShadow_18_23055" result="effect3_innerShadow_18_23055"/>
<feColorMatrix in="SourceAlpha" type="matrix" values="0 0 0 0 0 0 0 0 0 0 0 0 0 0 0 0 0 0 127 0" result="hardAlpha"/>
<feOffset dx="-0.05" dy="0.05"/>
<feGaussianBlur stdDeviation="0.1"/>
<feComposite in2="hardAlpha" operator="arithmetic" k2="-1" k3="1"/>
<feColorMatrix type="matrix" values="0 0 0 0 0.815686 0 0 0 0 0.560784 0 0 0 0 0.396078 0 0 0 1 0"/>
<feBlend mode="normal" in2="effect3_innerShadow_18_23055" result="effect4_innerShadow_18_23055"/>
</filter>
<filter id="filter1_f_18_23055" x="6.20117" y="5.03125" width="18.8438" height="23.6914" filterUnits="userSpaceOnUse" color-interpolation-filters="sRGB">
<feFlood flood-opacity="0" result="BackgroundImageFix"/>
<feBlend mode="normal" in="SourceGraphic" in2="BackgroundImageFix" result="shape"/>
<feGaussianBlur stdDeviation="0.25" result="effect1_foregroundBlur_18_23055"/>
</filter>
<filter id="filter2_ii_18_23055" x="6.91836" y="5.00625" width="18.1438" height="22.9914" filterUnits="userSpaceOnUse" color-interpolation-filters="sRGB">
<feFlood flood-opacity="0" result="BackgroundImageFix"/>
<feBlend mode="normal" in="SourceGraphic" in2="BackgroundImageFix" result="shape"/>
<feColorMatrix in="SourceAlpha" type="matrix" values="0 0 0 0 0 0 0 0 0 0 0 0 0 0 0 0 0 0 127 0" result="hardAlpha"/>
<feOffset dx="0.15" dy="-0.15"/>
<feGaussianBlur stdDeviation="0.15"/>
<feComposite in2="hardAlpha" operator="arithmetic" k2="-1" k3="1"/>
<feColorMatrix type="matrix" values="0 0 0 0 0.792157 0 0 0 0 0.721569 0 0 0 0 0.862745 0 0 0 1 0"/>
<feBlend mode="normal" in2="shape" result="effect1_innerShadow_18_23055"/>
<feColorMatrix in="SourceAlpha" type="matrix" values="0 0 0 0 0 0 0 0 0 0 0 0 0 0 0 0 0 0 127 0" result="hardAlpha"/>
<feOffset dx="-0.15" dy="0.15"/>
<feGaussianBlur stdDeviation="0.15"/>
<feComposite in2="hardAlpha" operator="arithmetic" k2="-1" k3="1"/>
<feColorMatrix type="matrix" values="0 0 0 0 1 0 0 0 0 1 0 0 0 0 1 0 0 0 1 0"/>
<feBlend mode="normal" in2="effect1_innerShadow_18_23055" result="effect2_innerShadow_18_23055"/>
</filter>
<filter id="filter3_f_18_23055" x="18.5059" y="21.7803" width="6.35156" height="6.31726" filterUnits="userSpaceOnUse" color-interpolation-filters="sRGB">
<feFlood flood-opacity="0" result="BackgroundImageFix"/>
<feBlend mode="normal" in="SourceGraphic" in2="BackgroundImageFix" result="shape"/>
<feGaussianBlur stdDeviation="0.125" result="effect1_foregroundBlur_18_23055"/>
</filter>
<filter id="filter4_ii_18_23055" x="18.9357" y="21.9062" width="6.12638" height="6.04141" filterUnits="userSpaceOnUse" color-interpolation-filters="sRGB">
<feFlood flood-opacity="0" result="BackgroundImageFix"/>
<feBlend mode="normal" in="SourceGraphic" in2="BackgroundImageFix" result="shape"/>
<feColorMatrix in="SourceAlpha" type="matrix" values="0 0 0 0 0 0 0 0 0 0 0 0 0 0 0 0 0 0 127 0" result="hardAlpha"/>
<feOffset dx="0.15"/>
<feGaussianBlur stdDeviation="0.125"/>
<feComposite in2="hardAlpha" operator="arithmetic" k2="-1" k3="1"/>
<feColorMatrix type="matrix" values="0 0 0 0 0.662745 0 0 0 0 0.611765 0 0 0 0 0.705882 0 0 0 1 0"/>
<feBlend mode="normal" in2="shape" result="effect1_innerShadow_18_23055"/>
<feColorMatrix in="SourceAlpha" type="matrix" values="0 0 0 0 0 0 0 0 0 0 0 0 0 0 0 0 0 0 127 0" result="hardAlpha"/>
<feOffset dy="0.1"/>
<feGaussianBlur stdDeviation="0.075"/>
<feComposite in2="hardAlpha" operator="arithmetic" k2="-1" k3="1"/>
<feColorMatrix type="matrix" values="0 0 0 0 0.878431 0 0 0 0 0.866667 0 0 0 0 0.890196 0 0 0 1 0"/>
<feBlend mode="normal" in2="effect1_innerShadow_18_23055" result="effect2_innerShadow_18_23055"/>
</filter>
<filter id="filter5_f_18_23055" x="10.3793" y="4.75625" width="10.4875" height="3.95625" filterUnits="userSpaceOnUse" color-interpolation-filters="sRGB">
<feFlood flood-opacity="0" result="BackgroundImageFix"/>
<feBlend mode="normal" in="SourceGraphic" in2="BackgroundImageFix" result="shape"/>
<feGaussianBlur stdDeviation="0.2" result="effect1_foregroundBlur_18_23055"/>
</filter>
<filter id="filter6_ii_18_23055" x="10.9293" y="1.88437" width="10.1375" height="6.25469" filterUnits="userSpaceOnUse" color-interpolation-filters="sRGB">
<feFlood flood-opacity="0" result="BackgroundImageFix"/>
<feBlend mode="normal" in="SourceGraphic" in2="BackgroundImageFix" result="shape"/>
<feColorMatrix in="SourceAlpha" type="matrix" values="0 0 0 0 0 0 0 0 0 0 0 0 0 0 0 0 0 0 127 0" result="hardAlpha"/>
<feOffset dx="0.1" dy="-0.1"/>
<feGaussianBlur stdDeviation="0.1"/>
<feComposite in2="hardAlpha" operator="arithmetic" k2="-1" k3="1"/>
<feColorMatrix type="matrix" values="0 0 0 0 0.556863 0 0 0 0 0.501961 0 0 0 0 0.572549 0 0 0 1 0"/>
<feBlend mode="normal" in2="shape" result="effect1_innerShadow_18_23055"/>
<feColorMatrix in="SourceAlpha" type="matrix" values="0 0 0 0 0 0 0 0 0 0 0 0 0 0 0 0 0 0 127 0" result="hardAlpha"/>
<feOffset dx="-0.1" dy="0.1"/>
<feGaussianBlur stdDeviation="0.05"/>
<feComposite in2="hardAlpha" operator="arithmetic" k2="-1" k3="1"/>
<feColorMatrix type="matrix" values="0 0 0 0 0.67451 0 0 0 0 0.65098 0 0 0 0 0.670588 0 0 0 1 0"/>
<feBlend mode="normal" in2="effect1_innerShadow_18_23055" result="effect2_innerShadow_18_23055"/>
</filter>
<linearGradient id="paint0_linear_18_23055" x1="16" y1="3.03516" x2="16" y2="29.9688" gradientUnits="userSpaceOnUse">
<stop stop-color="#E8A874"/>
<stop offset="1" stop-color="#DB925D"/>
</linearGradient>
<radialGradient id="paint1_radial_18_23055" cx="0" cy="0" r="1" gradientUnits="userSpaceOnUse" gradientTransform="translate(15.6855 5.3125) rotate(-90) scale(2.5 2.02864)">
<stop stop-color="#D79769"/>
<stop offset="1" stop-color="#D79769" stop-opacity="0"/>
</radialGradient>
<linearGradient id="paint2_linear_18_23055" x1="15.9902" y1="5.15625" x2="15.9902" y2="27.8477" gradientUnits="userSpaceOnUse">
<stop stop-color="#EAE2F4"/>
<stop offset="1" stop-color="#E4DAEF"/>
</linearGradient>
<linearGradient id="paint3_linear_18_23055" x1="19.3418" y1="22.6875" x2="21.623" y2="25.1562" gradientUnits="userSpaceOnUse">
<stop stop-color="#D6CDE1"/>
<stop offset="1" stop-color="#C6BAD2"/>
</linearGradient>
<linearGradient id="paint4_linear_18_23055" x1="18.7168" y1="3.78125" x2="15.6543" y2="8.21875" gradientUnits="userSpaceOnUse">
<stop stop-color="#948A94"/>
<stop offset="1" stop-color="#8D8291"/>
</linearGradient>
</defs>
</svg>

<svg width="32" height="32" fill="none" xmlns="http://www.w3.org/2000/svg"><g filter="url(#a)"><path d="M5.072 4.635a1.6 1.6 0 0 1 1.6-1.6h18.656a1.6 1.6 0 0 1 1.6 1.6V28.37a1.6 1.6 0 0 1-1.6 1.6H6.672a1.6 1.6 0 0 1-1.6-1.6V4.635Z" fill="url(#b)"/><path d="M5.072 4.635a1.6 1.6 0 0 1 1.6-1.6h18.656a1.6 1.6 0 0 1 1.6 1.6V28.37a1.6 1.6 0 0 1-1.6 1.6H6.672a1.6 1.6 0 0 1-1.6-1.6V4.635Z" fill="url(#c)"/></g><g filter="url(#d)"><path d="M7.951 5.531c-.69 0-1.25.56-1.25 1.25v20.192c0 .69.56 1.25 1.25 1.25h10.691a.75.75 0 0 0 .53-.22l5.153-5.153a.75.75 0 0 0 .22-.53V6.781c0-.69-.56-1.25-1.25-1.25H7.95Z" fill="#CD7D52"/></g><g filter="url(#e)"><path d="M8.318 5.156c-.69 0-1.25.56-1.25 1.25v20.192c0 .69.56 1.25 1.25 1.25H19.01a.75.75 0 0 0 .53-.22l5.153-5.153a.75.75 0 0 0 .22-.53V6.406c0-.69-.56-1.25-1.25-1.25H8.318Z" fill="url(#f)"/></g><rect x="9.037" y="12.016" width="13.914" height=".977" rx=".488" fill="#9B96A2"/><rect x="9.037" y="15.023" width="13.914" height=".977" rx=".488" fill="#9B96A2"/><rect x="9.037" y="18.031" width="13.914" height=".977" rx=".488" fill="#9B96A2"/><rect x="9.037" y="21.039" width="8.969" height=".977" rx=".488" fill="#9B96A2"/><g filter="url(#g)"><path d="M24.607 22.03h-.003c0 .219-.123.27-.242.283h-4.306a.98.98 0 0 0-.979.98v4.295c-.03.147-.219.231-.318.256l-.003.004h.072a.734.734 0 0 0 .52-.215l5.044-5.046a.734.734 0 0 0 .215-.519v-.038Z" fill="#D0C1E0"/></g><g filter="url(#h)"><path d="M24.912 21.906h-.004c0 .224-.125.277-.246.29h-4.398a1 1 0 0 0-1 1v4.387c-.03.15-.224.236-.325.26l-.003.005h.073a.75.75 0 0 0 .53-.22l5.153-5.153a.75.75 0 0 0 .22-.53v-.039Z" fill="url(#i)"/></g><g filter="url(#j)"><path d="M10.78 5.656a.5.5 0 0 1 .5-.5h9.187v2.657a.5.5 0 0 1-.5.5h-8.688a.5.5 0 0 1-.5-.5V5.655Z" fill="#CABFD5"/></g><g filter="url(#k)"><path fill-rule="evenodd" clip-rule="evenodd" d="M15.99 1.984c1.08 0 1.957.862 1.984 1.935 0 .027.023.05.05.05h.943a2 2 0 0 1 2 2v1.566a.504.504 0 0 1-.504.504h-8.93a.504.504 0 0 1-.504-.504V5.97a2 2 0 0 1 2-2h.927c.027 0 .05-.023.05-.05a1.984 1.984 0 0 1 1.984-1.935Zm0 2.883a.898.898 0 1 0 0-1.797.898.898 0 0 0 0 1.797Z" fill="url(#l)"/></g><defs><filter id="a" x="4.722" y="2.785" width="22.456" height="27.434" filterUnits="userSpaceOnUse" color-interpolation-filters="sRGB"><feFlood flood-opacity="0" result="BackgroundImageFix"/><feBlend in="SourceGraphic" in2="BackgroundImageFix" result="shape"/><feColorMatrix in="SourceAlpha" values="0 0 0 0 0 0 0 0 0 0 0 0 0 0 0 0 0 0 127 0" result="hardAlpha"/><feOffset dx=".25"/><feGaussianBlur stdDeviation=".25"/><feComposite in2="hardAlpha" operator="arithmetic" k2="-1" k3="1"/><feColorMatrix values="0 0 0 0 0.670588 0 0 0 0 0.376471 0 0 0 0 0.278431 0 0 0 1 0"/><feBlend in2="shape" result="effect1_innerShadow_18_23055"/><feColorMatrix in="SourceAlpha" values="0 0 0 0 0 0 0 0 0 0 0 0 0 0 0 0 0 0 127 0" result="hardAlpha"/><feOffset dy="-.25"/><feGaussianBlur stdDeviation=".25"/><feComposite in2="hardAlpha" operator="arithmetic" k2="-1" k3="1"/><feColorMatrix values="0 0 0 0 0.643137 0 0 0 0 0.329412 0 0 0 0 0.364706 0 0 0 1 0"/><feBlend in2="effect1_innerShadow_18_23055" result="effect2_innerShadow_18_23055"/><feColorMatrix in="SourceAlpha" values="0 0 0 0 0 0 0 0 0 0 0 0 0 0 0 0 0 0 127 0" result="hardAlpha"/><feOffset dx="-.35" dy=".25"/><feGaussianBlur stdDeviation=".225"/><feComposite in2="hardAlpha" operator="arithmetic" k2="-1" k3="1"/><feColorMatrix values="0 0 0 0 1 0 0 0 0 0.760784 0 0 0 0 0.529412 0 0 0 1 0"/><feBlend in2="effect2_innerShadow_18_23055" result="effect3_innerShadow_18_23055"/><feColorMatrix in="SourceAlpha" values="0 0 0 0 0 0 0 0 0 0 0 0 0 0 0 0 0 0 127 0" result="hardAlpha"/><feOffset dx="-.05" dy=".05"/><feGaussianBlur stdDeviation=".1"/><feComposite in2="hardAlpha" operator="arithmetic" k2="-1" k3="1"/><feColorMatrix values="0 0 0 0 0.815686 0 0 0 0 0.560784 0 0 0 0 0.396078 0 0 0 1 0"/><feBlend in2="effect3_innerShadow_18_23055" result="effect4_innerShadow_18_23055"/></filter><filter id="d" x="6.201" y="5.031" width="18.844" height="23.691" filterUnits="userSpaceOnUse" color-interpolation-filters="sRGB"><feFlood flood-opacity="0" result="BackgroundImageFix"/><feBlend in="SourceGraphic" in2="BackgroundImageFix" result="shape"/><feGaussianBlur stdDeviation=".25" result="effect1_foregroundBlur_18_23055"/></filter><filter id="e" x="6.918" y="5.006" width="18.144" height="22.991" filterUnits="userSpaceOnUse" color-interpolation-filters="sRGB"><feFlood flood-opacity="0" result="BackgroundImageFix"/><feBlend in="SourceGraphic" in2="BackgroundImageFix" result="shape"/><feColorMatrix in="SourceAlpha" values="0 0 0 0 0 0 0 0 0 0 0 0 0 0 0 0 0 0 127 0" result="hardAlpha"/><feOffset dx=".15" dy="-.15"/><feGaussianBlur stdDeviation=".15"/><feComposite in2="hardAlpha" operator="arithmetic" k2="-1" k3="1"/><feColorMatrix values="0 0 0 0 0.792157 0 0 0 0 0.721569 0 0 0 0 0.862745 0 0 0 1 0"/><feBlend in2="shape" result="effect1_innerShadow_18_23055"/><feColorMatrix in="SourceAlpha" values="0 0 0 0 0 0 0 0 0 0 0 0 0 0 0 0 0 0 127 0" result="hardAlpha"/><feOffset dx="-.15" dy=".15"/><feGaussianBlur stdDeviation=".15"/><feComposite in2="hardAlpha" operator="arithmetic" k2="-1" k3="1"/><feColorMatrix values="0 0 0 0 1 0 0 0 0 1 0 0 0 0 1 0 0 0 1 0"/><feBlend in2="effect1_innerShadow_18_23055" result="effect2_innerShadow_18_23055"/></filter><filter id="g" x="18.506" y="21.78" width="6.352" height="6.317" filterUnits="userSpaceOnUse" color-interpolation-filters="sRGB"><feFlood flood-opacity="0" result="BackgroundImageFix"/><feBlend in="SourceGraphic" in2="BackgroundImageFix" result="shape"/><feGaussianBlur stdDeviation=".125" result="effect1_foregroundBlur_18_23055"/></filter><filter id="h" x="18.936" y="21.906" width="6.126" height="6.041" filterUnits="userSpaceOnUse" color-interpolation-filters="sRGB"><feFlood flood-opacity="0" result="BackgroundImageFix"/><feBlend in="SourceGraphic" in2="BackgroundImageFix" result="shape"/><feColorMatrix in="SourceAlpha" values="0 0 0 0 0 0 0 0 0 0 0 0 0 0 0 0 0 0 127 0" result="hardAlpha"/><feOffset dx=".15"/><feGaussianBlur stdDeviation=".125"/><feComposite in2="hardAlpha" operator="arithmetic" k2="-1" k3="1"/><feColorMatrix values="0 0 0 0 0.662745 0 0 0 0 0.611765 0 0 0 0 0.705882 0 0 0 1 0"/><feBlend in2="shape" result="effect1_innerShadow_18_23055"/><feColorMatrix in="SourceAlpha" values="0 0 0 0 0 0 0 0 0 0 0 0 0 0 0 0 0 0 127 0" result="hardAlpha"/><feOffset dy=".1"/><feGaussianBlur stdDeviation=".075"/><feComposite in2="hardAlpha" operator="arithmetic" k2="-1" k3="1"/><feColorMatrix values="0 0 0 0 0.878431 0 0 0 0 0.866667 0 0 0 0 0.890196 0 0 0 1 0"/><feBlend in2="effect1_innerShadow_18_23055" result="effect2_innerShadow_18_23055"/></filter><filter id="j" x="10.379" y="4.756" width="10.488" height="3.956" filterUnits="userSpaceOnUse" color-interpolation-filters="sRGB"><feFlood flood-opacity="0" result="BackgroundImageFix"/><feBlend in="SourceGraphic" in2="BackgroundImageFix" result="shape"/><feGaussianBlur stdDeviation=".2" result="effect1_foregroundBlur_18_23055"/></filter><filter id="k" x="10.929" y="1.884" width="10.137" height="6.255" filterUnits="userSpaceOnUse" color-interpolation-filters="sRGB"><feFlood flood-opacity="0" result="BackgroundImageFix"/><feBlend in="SourceGraphic" in2="BackgroundImageFix" result="shape"/><feColorMatrix in="SourceAlpha" values="0 0 0 0 0 0 0 0 0 0 0 0 0 0 0 0 0 0 127 0" result="hardAlpha"/><feOffset dx=".1" dy="-.1"/><feGaussianBlur stdDeviation=".1"/><feComposite in2="hardAlpha" operator="arithmetic" k2="-1" k3="1"/><feColorMatrix values="0 0 0 0 0.556863 0 0 0 0 0.501961 0 0 0 0 0.572549 0 0 0 1 0"/><feBlend in2="shape" result="effect1_innerShadow_18_23055"/><feColorMatrix in="SourceAlpha" values="0 0 0 0 0 0 0 0 0 0 0 0 0 0 0 0 0 0 127 0" result="hardAlpha"/><feOffset dx="-.1" dy=".1"/><feGaussianBlur stdDeviation=".05"/><feComposite in2="hardAlpha" operator="arithmetic" k2="-1" k3="1"/><feColorMatrix values="0 0 0 0 0.67451 0 0 0 0 0.65098 0 0 0 0 0.670588 0 0 0 1 0"/><feBlend in2="effect1_innerShadow_18_23055" result="effect2_innerShadow_18_23055"/></filter><linearGradient id="b" x1="16" y1="3.035" x2="16" y2="29.969" gradientUnits="userSpaceOnUse"><stop stop-color="#E8A874"/><stop offset="1" stop-color="#DB925D"/></linearGradient><linearGradient id="f" x1="15.99" y1="5.156" x2="15.99" y2="27.848" gradientUnits="userSpaceOnUse"><stop stop-color="#EAE2F4"/><stop offset="1" stop-color="#E4DAEF"/></linearGradient><linearGradient id="i" x1="19.342" y1="22.688" x2="21.623" y2="25.156" gradientUnits="userSpaceOnUse"><stop stop-color="#D6CDE1"/><stop offset="1" stop-color="#C6BAD2"/></linearGradient><linearGradient id="l" x1="18.717" y1="3.781" x2="15.654" y2="8.219" gradientUnits="userSpaceOnUse"><stop stop-color="#948A94"/><stop offset="1" stop-color="#8D8291"/></linearGradient><radialGradient id="c" cx="0" cy="0" r="1" gradientUnits="userSpaceOnUse" gradientTransform="matrix(0 -2.5 2.02864 0 15.685 5.313)"><stop stop-color="#D79769"/><stop offset="1" stop-color="#D79769" stop-opacity="0"/></radialGradient></defs></svg>
